dist/svgs/crypto-icons/icons/loki.svg

<svg width="417" height="512" xmlns="http://www.w3.org/2000/svg"><g fill="#000" fill-rule="nonzero"><path d="M183.808 374.1696L0.2048 190.6176 190.5664 0.256 241.2544 50.9952 101.6832 190.6176 234.496 323.4816z"/><path d="M226.6624 511.744L175.9232 461.0048 315.5456 321.3824 182.6816 188.5184 233.4208 137.8304 416.9728 321.3824z"/></g></svg>

<svg xmlns="http://www.w3.org/2000/svg" viewBox="0 0 417 512"><path d="M183.808 374.17L.205 190.618 190.566.256l50.688 50.74-139.57 139.622 132.812 132.864z"/><path d="M226.662 511.744l-50.739-50.74 139.623-139.622-132.864-132.864 50.739-50.688 183.552 183.552z"/></svg>
